X: 9507
T: Dark Of The Moon
R: reel
M: 4/4
K: Adorian
|:cBAB cAEF|GBAG FAdB|cBAB cedc|BAGF E4|
cBAG AcBA|G2dG FAdB|cBed cBAG|EAA^G A4:|
|:BcBA GEFG|A2ed Bcdc|BA A2 FGAc|B2AB G4|
BcBA BGAB|c2AG ABcd|edcA (3Bcd ef|gfed c4||
|:c3d ecBA|B3c dBAG|FAde d2FA|EAcd c3A|
EGAB cedc|BAGE FAdB|c2ed cBAG|EAA^G A4:|

